dist/svg/static/youtube-large.svg

<svg xmlns="http://www.w3.org/2000/svg" width="48" height="48" viewBox="0 0 48 48"><path d="M38.7 18.002s-.293-2.067-1.192-2.978c-1.141-1.195-2.42-1.2-3.006-1.27-4.198-.304-10.496-.304-10.496-.304h-.013s-6.297 0-10.495.303c-.586.07-1.865.076-3.006 1.271-.9.91-1.192 2.978-1.192 2.978S9 20.43 9 22.857v2.276c0 2.428.3 4.856.3 4.856s.293 2.067 1.192 2.977c1.141 1.195 2.64 1.157 3.308 1.283 2.4.23 10.2.301 10.2.301s6.304-.01 10.502-.313c.586-.07 1.865-.076 3.006-1.27.9-.911 1.192-2.978 1.192-2.978s.3-2.428.3-4.856v-2.276c0-2.427-.3-4.855-.3-4.855zm-17.797 9.89l-.001-8.43 8.106 4.23-8.105 4.2z" fill="currentColor"/></svg>

<?xml version="1.0" encoding="UTF-8" standalone="no"?>
<svg width="48px" height="48px" viewBox="0 0 48 48" version="1.1" xmlns="http://www.w3.org/2000/svg" xmlns:xlink="http://www.w3.org/1999/xlink">
    <!-- Generator: sketchtool 46.2 (44496) - http://www.bohemiancoding.com/sketch -->
    <title>youtube-large</title>
    <desc>Created with sketchtool.</desc>
    <defs></defs>
    <g id="icons-published" stroke="none" stroke-width="1" fill="none" fill-rule="evenodd">
        <g id="briefing" transform="translate(-2016.000000, -2458.000000)"></g>
        <g id="youtube-large" fill-rule="nonzero" fill="#000000">
            <path d="M38.7,18 C38.7,18 38.4,15.9 37.5,15 C36.4,13.8 35.1,13.8 34.5,13.7 C30.3,13.5 24,13.5 24,13.5 L24,13.5 C24,13.5 17.7,13.5 13.5,13.8 C12.9,13.9 11.6,13.9 10.5,15.1 C9.6,16 9.3,18.1 9.3,18.1 C9.3,18.1 9,20.4 9,22.9 L9,25.2 C9,27.6 9.3,30 9.3,30 C9.3,30 9.6,32.1 10.5,33 C11.6,34.2 13.1,34.2 13.8,34.3 C16.2,34.5 24,34.6 24,34.6 C24,34.6 30.3,34.6 34.5,34.3 C35.1,34.2 36.4,34.2 37.5,33 C38.4,32.1 38.7,30 38.7,30 C38.7,30 39,27.6 39,25.1 L39,22.8 C39,20.4 38.7,18 38.7,18 Z M20.9,27.9 L20.9,19.5 L29,23.7 L20.9,27.9 Z" id="Shape"></path>
        </g>
    </g>
</svg>
